X:34
T:My Love Is But a Lassie Yet
Z: id:dc-polka-46
M:2/4
L:1/8
K:D Major
d/c/|dD FA|dD Dd/c/|dD FA|eE Ed/c/|!
dD FA|Bg fe|d/c/B/A/ B/c/d/e/|fd d:|!
f/g/|af ge|fd df/g/|af ga|be ef/g/|!
af ge|fd ec|d/c/B/A/ B/c/d/e/|fd d:|!

